X:33
T:Here's A Health To The Company
I:titlefont Times-Roman 24
I:partsfont Times-Roman 20
M:3/4
L:1/8
O:Trad. (11.2.2016/NS)
K:Bm
f>e|"Hm"f2B3 d|"F#m"c>BA2 zA|"A"A2e2c2|"Hm"B4 B>c|
w:Here's a health to the com-pa-ny and one to my lass. Let us
"D"d2e2f2|"Hm"(b>a) f2 (f>e)|f2B2 (c>B)|"A"A4 B>c|
w:drink and be mer--ry all_ out of one_ glass. Let us
"D"d2e2f2|"Hm"(b>a) f2 (f>e)|f2B2 c>B|"A"A4 f>e|
w:drink and be mer--ry all_ grief to ref--rain. For we
"Hm"d2B2 (B>c)|"F#m"(B>A) F2 (F>^G)|"A"A2 (e>d) (B>A)|"G"B4
w:may or might_ nev--er all_ meet here_ a--gain.
%%vskip
%%vskip
%%begintext
1.Kind _friends and companions, come join me in rhyme
Come _lift up your voices in chorus with mine
Come _lift up your voices, all grief to refrain
For we _may or might never all meet here again
So here's a health to the company..
2.Here's a _health to the wee lass that I love so well
Her _style and her beauty there's none can excel
There's a _smile on her countenance as she sits upon my knee
There is _no one in this wide world as happy as we
So here's a health to the company..
3.Our _ship lies at anchor, she is ready to dock
I _wish her safe landing without any shock
And if _e'er should we meet again by land or by sea
I will _always remember your kindness to me
So here's a health to the company..
%%endtext

